X: 35
T:Le bout du monde
R:Valse
O:France
A:Centre
C:Heintzen
Z:Transcrit et/ou corrig par Michel BELLON - 2005-05-15
Z:Pour toute observation mailto:galouvielle@free.fr
S:80 airs  danser du centre France - La Chavanne - 1991
S:75
M:3/4
L:1/4
K:G
B/2c/2 | dBA | GBd | gec | d2e/2f/2 | gfe | dcB |1 Ad>e | d2 :|2 Aaf | g2g/2a/2 |:
b/2a/2 g/2a/2 b/2a/2 | e2 f/2g/2 | a/2g/2 f/2e/2 f/2d/2 | B3 | BA/2G/2 A/2B/2 | A>Bc |1 e d/2c/2d/2e/2 | d2 g/2a/2 :|2 e d/2c/2 f/2d/2 | g2 |]
%%footer $D   Galouvielle-MBe 2005 \nValse France
